app/javascript/src/assets/close-badge.svg

<?xml version="1.0" encoding="UTF-8"?>
<svg width="20px" height="20px" viewBox="0 0 20 20" version="1.1" xmlns="http://www.w3.org/2000/svg" xmlns:xlink="http://www.w3.org/1999/xlink">
    <!-- Generator: Sketch 57.1 (83088) - https://sketch.com -->
    <title>Icon/Close-badge</title>
    <desc>Created with Sketch.</desc>
    <g id="Icon/Close-badge" stroke="none" stroke-width="1" fill="none" fill-rule="evenodd">
        <g id="Icons/Close-badge">
            <g id="Material/Badge-Float" fill="#FFFFFF">
                <circle id="Oval" cx="10" cy="10" r="10"></circle>
            </g>
            <path d="M5.79059853,5.79059853 C6.17806324,5.40313382 6.80626765,5.40313382 7.19373235,5.79059853 L7.19373235,5.79059853 L10,8.597 L12.8062676,5.79059853 C13.1937324,5.40313382 13.8219368,5.40313382 14.2094015,5.79059853 C14.5968662,6.17806324 14.5968662,6.80626765 14.2094015,7.19373235 L11.403,10 L14.2094015,12.8062676 C14.5670612,13.1639274 14.5945735,13.7267144 14.2919383,14.1159322 L14.2094015,14.2094015 C13.8219368,14.5968662 13.1937324,14.5968662 12.8062676,14.2094015 L12.8062676,14.2094015 L10,11.403 L7.19373235,14.2094015 C6.80626765,14.5968662 6.17806324,14.5968662 5.79059853,14.2094015 C5.40313382,13.8219368 5.40313382,13.1937324 5.79059853,12.8062676 L8.597,10 L5.79059853,7.19373235 C5.4329388,6.83607262 5.40542651,6.27328557 5.70806167,5.88406779 Z" id="Combined-Shape" fill="#949494" fill-rule="nonzero"></path>
        </g>
    </g>
</svg>

<svg width="20" height="20" viewBox="0 0 20 20" xmlns="http://www.w3.org/2000/svg"><g fill="none" fill-rule="evenodd"><circle cx="10" cy="10" r="10" fill="#FFF"/><path d="M5.79 5.79a.992.992 0 011.404 0L10 8.598l2.806-2.806a.992.992 0 011.403 1.403L11.403 10l2.806 2.806c.358.358.386.92.083 1.31l-.083.093a.992.992 0 01-1.403 0L10 11.403l-2.806 2.806a.992.992 0 11-1.403-1.403L8.597 10 5.791 7.194a.992.992 0 01-.083-1.31z" fill="#949494" fill-rule="nonzero"/></g></svg>
